X:1
T:O Wie Selig, 10.10.5.10
T:O Wie Selig, 10.10.5.10
T:Johann Georg Stözel, 1744
T:Public Domain Courtesy of the Cyber Hymnal™
C:Johann Georg Stözel, 1744
Z:Public Domain
Z:Courtesy of the Cyber Hymnal™
%%score ( 1 2 ) ( 3 4 )
L:1/8
Q:1/4=113
M:4/4
K:Eb
V:1 treble 
V:2 treble 
V:3 bass 
V:4 bass 
V:1
 [B,E]2 (GA) [DB]2 [EB]2 | [Ec]2 (BA) [EG]2 [EB]2 | A4 [EG]4 | [B,E]2 (GA) [DB]2 [EB]2 | %4
 [Ee]2 [Fd]2 [Fc]2 [Fd]2 | [Fc]4 [DB]4 | [DB]4 [CF]2 [=EG]2 | [FA]4 [DF]4 | %8
 [FA]2 [EB]2 [Ec]2 [FA]2 | [Ec]2 [_DB]2 [CA]2 [B,G]2 | [B,F]4 [B,E]4 |] %11
V:2
 x2 E2 x4 | x2 D2 x4 | (E2 D2) x4 | x2 E2 x4 | x8 | x8 | x8 | x8 | x8 | x8 | x8 |] %11
V:3
 [E,G,]2 [C,E,]2 [B,,F,]2 [E,G,]2 | [A,,A,]2 [B,,F,]2 [C,E,]2 [G,,B,]2 | (F,2 B,2) [E,B,]4 | %3
 [E,G,]2 [C,E,]2 [B,,F,]2 [E,G,]2 | [C,G,]2 [D,B,]2 [E,=A,]2 [D,B,]2 | (B,2 =A,2) [B,,B,]4 | %6
 [B,,F,]4 [A,,A,]2 [G,,B,]2 | [F,,C]4 [B,,B,]4 | [F,,C]2 [G,,B,]2 [A,,A,]2 [_D,A,]2 | %9
 [A,,A,]2 [B,,F,]2 [C,E,]2 E,2 | (E,2 D,2) [E,,G,]4 |] %11
V:4
 x8 | x8 | B,,4 x4 | x8 | x8 | F,4 x4 | x8 | x8 | x8 | x6 E,2 | B,,4 x4 |] %11

